packages/swarm-icons/src/icons/large/Notif Selected.svg

<svg xmlns="http://www.w3.org/2000/svg" width="28" height="28" viewBox="0 0 28 28">
  <path fill="#212121" d="M14,2 C15.4948902,2 16.7282425,3.12033984 16.9070229,4.56758704 C19.9242165,5.74702163 21.979798,8.67503797 21.979798,12.0050251 L21.979798,17.159129 C21.979798,17.3305387 21.9094845,17.2601898 22.0808081,17.2601898 C23.1407485,17.2601898 24,18.1198731 24,19.1803462 L24,20.2920156 C24,21.2966743 23.1859723,22.1111111 22.1818182,22.1111111 L5.81818182,22.1111111 C4.81402773,22.1111111 4,21.2966743 4,20.2920156 L4,19.1803462 C4,18.1198731 4.85925149,17.2601898 5.91919192,17.2601898 C6.09051555,17.2601898 6.02020202,17.3305387 6.02020202,17.159129 L6.02020202,12.0050251 C6.02020202,8.67503797 8.07578346,5.74702163 11.0929771,4.56758704 C11.2717575,3.12033984 12.5051098,2 14,2 Z M12.2727273,23.5 L15.7272727,23.5 C16.2795575,23.5 16.7272727,23.9477153 16.7272727,24.5 C16.7272727,25.0522847 16.2795575,25.5 15.7272727,25.5 L12.2727273,25.5 C11.7204425,25.5 11.2727273,25.0522847 11.2727273,24.5 C11.2727273,23.9477153 11.7204425,23.5 12.2727273,23.5 Z"/>
</svg>

<svg xmlns="http://www.w3.org/2000/svg" width="28" height="28"><path fill="#212121" d="M14 2a2.93 2.93 0 012.907 2.568 7.987 7.987 0 015.073 7.437v5.154c0 .172-.07.101.1.101 1.06 0 1.92.86 1.92 1.92v1.112c0 1.005-.814 1.82-1.818 1.82H5.818A1.819 1.819 0 014 20.291V19.18c0-1.06.86-1.92 1.92-1.92.17 0 .1.07.1-.1v-5.155a7.987 7.987 0 015.073-7.437A2.93 2.93 0 0114 2zm-1.727 21.5h3.454a1 1 0 110 2h-3.454a1 1 0 110-2z"/></svg>
